iphone/Maps/Images.xcassets/Interface/Search/Categories/rv.imageset/rv_light.svg

<svg height="28" viewBox="0 0 28 28" width="28" xmlns="http://www.w3.org/2000/svg"><g fill="none" opacity=".898664"><circle cx="14" cy="14" fill="#747e86" fill-rule="evenodd" r="14"/><path d="m8.33758333 7.43983333c-1.3811 0-2.50425 1.15025167-2.50425 2.56584997v6.9340834c0 1.1097916.690515 2.0578833 1.65433334 2.41535-.02986685-.158593-.04739089-.319368-.05240667-.4808067-.00003029-.8088742.31353599-1.5846086.87167531-2.1564454.55813931-.5718368 1.31510047-.892902 2.10425799-.8925213 1.6425149.0004623 2.9737796 1.3654146 2.9737167 3.0489667-.0018818.2131092-.0255585.4254288-.0706417.6334767h10.017c.336665 0 .61068-.2815634.61068-.62664 0-.3450767-.2740266-.6243534-.61068-.6243534h-1.8571c.22582-.3854433.3554717-.8357416.3554717-1.31705v-3.5707c0-3.2706333-2.5946667-5.92920997-5.7855-5.92920997h-7.70641667zm.546875 2.16241667h2.11003337c.3367116 0 .6106916.2793.6106916.624365v2.16475c0 .3450767-.2740266.6243533-.6106916.6243533h-2.11003337c-.336665 0-.61069166-.2793-.61069166-.6243533v-2.16475c0-.34507667.27402666-.624365.61069166-.624365zm7.76346667 1.082375h.1617817c1.4561166 0 2.6387666 1.2146167 2.6387666 2.7070167v4.865h-1.21905v-4.865c0-.8032734-.63588-1.4583334-1.4196-1.4583334h-.1617816c-.783685 0-1.4196.65506-1.4196 1.4583334v4.865h-1.2213834v-4.865c0-1.4924 1.1848667-2.7070167 2.6409834-2.7070167zm-6.2367667 6.3734997c-.47011658-.0002853-.92107214.1909362-1.25358263.5315647s-.519284.8027369-.519284 1.2845856.18677351.9439571.519284 1.2845856.78346605.53185 1.25358263.5315647c.9780906-.0007264 1.7705965-.8136507 1.7705334-1.8161503.0000631-1.0024996-.7924428-1.8154239-1.7705334-1.8161503z" fill="#fff"/></g></svg>

<?xml version="1.0" encoding="UTF-8"?>
<svg width="28px" height="28px" viewBox="0 0 28 28" version="1.1" xmlns="http://www.w3.org/2000/svg" xmlns:xlink="http://www.w3.org/1999/xlink">
    <title>rv_light</title>
    <g id="rv_light" stroke="none" fill="none" fill-rule="evenodd">
        <path d="M14,0 C21.7319865,0 28,6.2680135 28,14 C28,21.7319865 21.7319865,28 14,28 C6.2680135,28 0,21.7319865 0,14 C0,6.2680135 6.2680135,0 14,0 Z M10.4111583,17.0581247 C9.94104172,17.0578394 9.49008616,17.2490609 9.15757567,17.5896894 C8.82506518,17.9303179 8.63829167,18.3924263 8.63829167,18.874275 C8.63829167,19.3561237 8.82506518,19.8182321 9.15757567,20.1588606 C9.49008616,20.4994891 9.94104172,20.6907106 10.4111583,20.6904253 C11.3892489,20.6896989 12.1817548,19.8767746 12.1816917,18.874275 C12.1817548,17.8717754 11.3892489,17.0588511 10.4111583,17.0581247 Z M16.04414,7.43983333 L8.33772333,7.43983333 C6.95648333,7.43983333 5.83333333,8.590085 5.83333333,10.0056833 L5.83333333,16.9397667 C5.83333333,18.0495583 6.52384833,18.99765 7.48766667,19.3551167 C7.45779982,19.1965237 7.44027578,19.0357487 7.43526,18.87431 C7.43522971,18.0654358 7.74879599,17.2897014 8.30693531,16.7178646 C8.86507462,16.1460278 9.62203578,15.8249626 10.4111933,15.8253433 C12.0537082,15.8258056 13.3849729,17.1907579 13.38491,18.87431 C13.3830282,19.0874192 13.3593515,19.2997388 13.3142683,19.5077867 L23.3312683,19.5077867 C23.6679333,19.5077867 23.9419483,19.2262233 23.9419483,18.8811467 C23.9419483,18.53607 23.6679217,18.2567933 23.3312683,18.2567933 L21.4741683,18.2567933 C21.6999883,17.87135 21.82964,17.4210517 21.82964,16.9397433 L21.82964,13.3690433 C21.82964,10.09841 19.2349733,7.43983333 16.04414,7.43983333 Z M16.8097067,10.684625 C18.2658233,10.684625 19.4484733,11.8992417 19.4484733,13.3916417 L19.4484733,18.2566417 L18.2294233,18.2566417 L18.2294233,13.3916417 C18.2294233,12.5883683 17.5935433,11.9333083 16.8098233,11.9333083 L16.6480417,11.9333083 C15.8643567,11.9333083 15.2284417,12.5883683 15.2284417,13.3916417 L15.2284417,18.2566417 L14.0070583,18.2566417 L14.0070583,13.3916417 C14.0070583,11.8992417 15.191925,10.684625 16.6480417,10.684625 L16.8097067,10.684625 Z M10.9944917,9.60225 C11.3312033,9.60225 11.6051833,9.88155 11.6051833,10.226615 L11.6051833,12.391365 C11.6051833,12.7364417 11.3311567,13.0157183 10.9944917,13.0157183 L8.88445833,13.0157183 C8.54779333,13.0157183 8.27376667,12.7364183 8.27376667,12.391365 L8.27376667,10.226615 C8.27376667,9.88153833 8.54779333,9.60225 8.88445833,9.60225 L10.9944917,9.60225 Z" id="Shape" fill="#747E86"></path>
    </g>
</svg>
